64x64/apps/steamlink.svg

<svg xmlns="http://www.w3.org/2000/svg" width="64" height="64" version="1">
 <rect style="opacity:0.2" width="56" height="56" x="4" y="5" rx="16.8" ry="16.8"/>
 <rect style="fill:#204e7b" width="56" height="56" x="4" y="4" rx="16.8" ry="16.8"/>
 <path style="opacity:0.2" d="M 32,13 A 20,20 0 0 0 12,33 20,20 0 0 0 32,53 20,20 0 0 0 52,33 20,20 0 0 0 32,13 Z m -0.04102,10 c 4.188482,-1.46e-4 8.374683,0.04886 8.933594,0.150391 1.329923,0.241672 1.728423,0.745852 2.785156,3.513671 1.073499,2.811735 1.98112,6.685204 2.257813,9.623047 0.160263,1.701624 0.02671,2.870564 -0.457031,3.996094 -0.727711,1.693177 -2.747355,2.968028 -4.240235,2.675781 C 40.47023,42.808629 39.995478,42.210467 38.736328,39.824219 38.094405,38.607692 37.43281,37.204032 37.240234,37 H 26.6875 c -0.553768,0.882173 -0.941187,1.801012 -1.365234,2.619141 -0.542593,1.040015 -1.12492,2.10986 -1.292969,2.376953 -0.555446,0.882814 -1.733642,1.234437 -2.802735,0.835937 -1.325171,-0.49395 -2.410969,-1.553104 -2.878906,-2.80664 -0.913273,-2.446505 0.03081,-8.527874 2.177735,-14 0.836103,-2.131086 1.294416,-2.658857 2.484375,-2.871094 C 23.57942,23.052699 27.770504,23.000146 31.958984,23 Z M 25.5,26 A 3.5000001,3.5000001 0 0 0 22,29.5 3.5000001,3.5000001 0 0 0 25.5,33 3.5000001,3.5000001 0 0 0 29,29.5 3.5000001,3.5000001 0 0 0 25.5,26 Z m 13,0 A 3.5000001,3.5000001 0 0 0 35,29.5 3.5000001,3.5000001 0 0 0 38.5,33 3.5000001,3.5000001 0 0 0 42,29.5 3.5000001,3.5000001 0 0 0 38.5,26 Z"/>
 <path style="fill:#f4f4f7" d="M 32 12 A 20 20 0 0 0 12 32 A 20 20 0 0 0 32 52 A 20 20 0 0 0 52 32 A 20 20 0 0 0 32 12 z M 31.958984 22 C 36.147466 21.999854 40.333667 22.048861 40.892578 22.150391 C 42.222501 22.392063 42.621001 22.896243 43.677734 25.664062 C 44.751233 28.475797 45.658854 32.349266 45.935547 35.287109 C 46.09581 36.988733 45.96226 38.157673 45.478516 39.283203 C 44.750805 40.97638 42.731161 42.251231 41.238281 41.958984 C 40.47023 41.808629 39.995478 41.210467 38.736328 38.824219 C 38.094405 37.607692 37.43281 36.204032 37.240234 36 L 26.6875 36 C 26.133732 36.882173 25.746313 37.801012 25.322266 38.619141 C 24.779673 39.659156 24.197346 40.729001 24.029297 40.996094 C 23.473851 41.878908 22.295655 42.230531 21.226562 41.832031 C 19.901391 41.338081 18.815593 40.278927 18.347656 39.025391 C 17.434383 36.578886 18.378462 30.497517 20.525391 25.025391 C 21.361494 22.894305 21.819807 22.366534 23.009766 22.154297 C 23.57942 22.052699 27.770504 22.000146 31.958984 22 z M 25.5 25 A 3.5000001 3.5000001 0 0 0 22 28.5 A 3.5000001 3.5000001 0 0 0 25.5 32 A 3.5000001 3.5000001 0 0 0 29 28.5 A 3.5000001 3.5000001 0 0 0 25.5 25 z M 38.5 25 A 3.5000001 3.5000001 0 0 0 35 28.5 A 3.5000001 3.5000001 0 0 0 38.5 32 A 3.5000001 3.5000001 0 0 0 42 28.5 A 3.5000001 3.5000001 0 0 0 38.5 25 z"/>
 <path style="fill:#f4f4f7;opacity:0.1" d="M 20.800781 4 C 11.493582 4 4 11.493582 4 20.800781 L 4 21.800781 C 4 12.493582 11.493582 5 20.800781 5 L 43.199219 5 C 52.506418 5 60 12.493582 60 21.800781 L 60 20.800781 C 60 11.493582 52.506418 4 43.199219 4 L 20.800781 4 z"/>
</svg>

<svg xmlns="http://www.w3.org/2000/svg" width="64" height="64" version="1"><rect style="opacity:.2" width="56" height="56" x="4" y="5" rx="16.8" ry="16.8"/><rect style="fill:#204e7b" width="56" height="56" x="4" y="4" rx="16.8" ry="16.8"/><path style="opacity:.2" d="M32 13a20 20 0 0 0-20 20 20 20 0 0 0 20 20 20 20 0 0 0 20-20 20 20 0 0 0-20-20zm-.041 10c4.188 0 8.375.049 8.934.15 1.33.242 1.728.746 2.785 3.514 1.073 2.812 1.98 6.685 2.258 9.623.16 1.702.026 2.87-.457 3.996-.728 1.693-2.748 2.968-4.24 2.676-.769-.15-1.244-.749-2.503-3.135-.642-1.216-1.303-2.62-1.496-2.824H26.687c-.553.882-.94 1.801-1.365 2.62-.542 1.04-1.125 2.109-1.293 2.376-.555.883-1.733 1.235-2.802.836-1.326-.494-2.411-1.553-2.88-2.807-.913-2.446.031-8.527 2.178-14 .836-2.13 1.295-2.658 2.485-2.87.57-.102 4.76-.155 8.949-.155zM25.5 26a3.5 3.5 0 0 0-3.5 3.5 3.5 3.5 0 0 0 3.5 3.5 3.5 3.5 0 0 0 3.5-3.5 3.5 3.5 0 0 0-3.5-3.5zm13 0a3.5 3.5 0 0 0-3.5 3.5 3.5 3.5 0 0 0 3.5 3.5 3.5 3.5 0 0 0 3.5-3.5 3.5 3.5 0 0 0-3.5-3.5z"/><path style="fill:#f4f4f7" d="M32 12a20 20 0 0 0-20 20 20 20 0 0 0 20 20 20 20 0 0 0 20-20 20 20 0 0 0-20-20zm-.041 10c4.188 0 8.375.049 8.934.15 1.33.242 1.728.746 2.785 3.514 1.073 2.812 1.98 6.685 2.258 9.623.16 1.702.026 2.87-.457 3.996-.728 1.693-2.748 2.968-4.24 2.676-.769-.15-1.244-.749-2.503-3.135-.642-1.216-1.303-2.62-1.496-2.824H26.687c-.553.882-.94 1.801-1.365 2.62-.542 1.04-1.125 2.109-1.293 2.376-.555.883-1.733 1.235-2.802.836-1.326-.494-2.411-1.553-2.88-2.807-.913-2.446.031-8.527 2.178-14 .836-2.13 1.295-2.658 2.485-2.87.57-.102 4.76-.155 8.949-.155zM25.5 25a3.5 3.5 0 0 0-3.5 3.5 3.5 3.5 0 0 0 3.5 3.5 3.5 3.5 0 0 0 3.5-3.5 3.5 3.5 0 0 0-3.5-3.5zm13 0a3.5 3.5 0 0 0-3.5 3.5 3.5 3.5 0 0 0 3.5 3.5 3.5 3.5 0 0 0 3.5-3.5 3.5 3.5 0 0 0-3.5-3.5z"/><path style="fill:#f4f4f7;opacity:.1" d="M20.8 4C11.495 4 4 11.494 4 20.8v1C4 12.495 11.494 5 20.8 5h22.4C52.505 5 60 12.494 60 21.8v-1C60 11.495 52.506 4 43.2 4H20.8z"/></svg>
